Yaru++/actions/scalable/document-new.svg

<svg height="256" width="256" xmlns="http://www.w3.org/2000/svg" xmlns:xlink="http://www.w3.org/1999/xlink"><linearGradient id="a" gradientUnits="userSpaceOnUse" x1="88" x2="488" y1="88" y2="488"><stop offset="0" stop-opacity=".588235"/><stop offset=".88" stop-opacity="0"/><stop offset="1"/></linearGradient><filter id="b" color-interpolation-filters="sRGB" height="1.048" width="1.048" x="-.024" y="-.024"><feGaussianBlur stdDeviation=".84"/></filter><linearGradient id="c" gradientTransform="matrix(0 -.453125 .45311204 0 17.237135 265.00077)" gradientUnits="userSpaceOnUse" x1="529.65515" x2="-35.310345" y1="401.58368" y2="119.09284"><stop offset="0" stop-color="#f2f2f2"/><stop offset="1" stop-color="#f9f9f9"/></linearGradient><filter id="d" color-interpolation-filters="sRGB" height="1.087725" width="1.105998" x="-.052999" y="-.043863"><feGaussianBlur stdDeviation="8.4801079"/></filter><filter id="e" color-interpolation-filters="sRGB" height="1.021931" width="1.0265" x="-.01325" y="-.010966"><feGaussianBlur stdDeviation="2.120027"/></filter><g enable-background="new" transform="translate(-15.865997 -27.826004)"><path d="m94.121155 41.000769c-35.296723 0-39.09461 3.625418-38.92162 38.99353v73.006471 73.00647c-.17299 35.36812 3.624897 38.99353 38.92162 38.99353h98.156765c35.29672 0 38.92162-3.625 38.92162-38.99353v-73.00647-73.006471c0-35.368533-3.6249-38.99353-38.92162-38.99353z" fill="none" opacity=".2" stroke="#000" stroke-width="4"/><path d="m189.84323 74c-70.59344 0-78.18921 7.250835-77.84323 77.98706v146.01294 146.01294c-.34598 70.73623 7.24979 77.98706 77.84323 77.98706h196.31354c70.59344 0 76.00668-7.27384 77.84323-77.98706v-146.01294-146.01294c0-70.737067-7.24979-77.98706-77.84323-77.98706z" filter="url(#e)" opacity=".1" transform="matrix(.5 0 0 .5 -.800465 5.000769)"/><path d="m189.84323 74c-70.59344 0-78.18921 7.250835-77.84323 77.98706v146.01294 146.01294c-.34598 70.73623 7.24979 77.98706 77.84323 77.98706h196.31354c70.59344 0 77.84323-7.24999 77.84323-77.98706v-146.01294-146.01294c0-70.737067-7.24979-77.98706-77.84323-77.98706z" fill="url(#a)" filter="url(#d)" opacity=".3" transform="matrix(.5 0 0 .5 -.800465 5.000769)"/><path d="m94.121155 41.000769c-35.296723 0-39.09461 3.625418-38.92162 38.99353v73.006471 73.00647c-.17299 35.36812 3.624897 38.99353 38.92162 38.99353h98.156765c35.29672 0 38.92162-3.625 38.92162-38.99353v-73.00647-73.006471c0-35.368533-3.6249-38.99353-38.92162-38.99353z" fill="url(#c)"/><circle cx="208" cy="-182" filter="url(#b)" opacity=".2" r="42" transform="matrix(0 1 -1 0 -8.800465 -2.99923)"/><circle cx="203.00078" cy="-173.19952" fill="#45a925" r="42" transform="rotate(90)"/><rect fill="#f4f4f4" height="12" rx="2.24" ry="2" width="48" x="149.19952" y="197.00078"/><rect fill="#f4f4f4" height="48" rx="2" ry="2.24" width="12" x="167.19952" y="179.00078"/><g fill="#fff"><path d="m173.19954 41.000769v224.000001h19.07812c35.29672 0 38.00361-3.63655 38.92188-38.99317v-73.00683-73.006836c0-35.368534-3.62516-38.993165-38.92188-38.993165z" opacity=".1"/><path d="m55.199535 203.00077v23.00683c-.17299 35.36812 3.625155 38.99317 38.92188 38.99317h98.156245c35.29672 0 38.00361-3.63655 38.92188-38.99317v-23.00683z" opacity=".1"/><path d="m171.19954 265.00077 60-60v22.48388c-.0523 33.99581-3.80268 37.51612-38.1741 37.51612z" opacity=".4"/><path d="m94.121415 41.000769c-35.296728 0-39.09487 3.626029-38.92188 38.994141v2c-.17299-35.368112 3.625152-38.994141 38.92188-38.994141h98.156245c35.29673 0 38.92188 3.625608 38.92188 38.994141v-2c0-35.368533-3.62515-38.994141-38.92188-38.994141z" opacity=".6"/></g></g></svg>

<?xml version="1.0" encoding="UTF-8" standalone="no"?>
<svg
   xmlns:osb="http://www.openswatchbook.org/uri/2009/osb"
   xmlns:dc="http://purl.org/dc/elements/1.1/"
   xmlns:cc="http://creativecommons.org/ns#"
   xmlns:rdf="http://www.w3.org/1999/02/22-rdf-syntax-ns#"
   xmlns:svg="http://www.w3.org/2000/svg"
   xmlns="http://www.w3.org/2000/svg"
   xmlns:xlink="http://www.w3.org/1999/xlink"
   xmlns:sodipodi="http://sodipodi.sourceforge.net/DTD/sodipodi-0.dtd"
   xmlns:inkscape="http://www.inkscape.org/namespaces/inkscape"
   width="256"
   height="256"
   version="1.1"
   id="svg50"
   sodipodi:docname="document-new.svg"
   inkscape:version="0.92.4 (5da689c313, 2019-01-14)">
  <metadata
     id="metadata54">
    <rdf:RDF>
      <cc:Work
         rdf:about="">
        <dc:format>image/svg+xml</dc:format>
        <dc:type
           rdf:resource="http://purl.org/dc/dcmitype/StillImage" />
      </cc:Work>
    </rdf:RDF>
  </metadata>
  <sodipodi:namedview
     pagecolor="#ffffff"
     bordercolor="#666666"
     borderopacity="1"
     objecttolerance="10"
     gridtolerance="10"
     guidetolerance="10"
     inkscape:pageopacity="0"
     inkscape:pageshadow="2"
     inkscape:window-width="1920"
     inkscape:window-height="1016"
     id="namedview52"
     showgrid="false"
     inkscape:zoom="3.426175"
     inkscape:cx="74.906457"
     inkscape:cy="161.95371"
     inkscape:window-x="0"
     inkscape:window-y="27"
     inkscape:window-maximized="1"
     inkscape:current-layer="g48" />
  <defs
     id="defs22">
    <linearGradient
       id="linearGradient5606"
       osb:paint="solid">
      <stop
         id="stop5608"
         offset="0"
         style="stop-color:#000000" />
    </linearGradient>
    <linearGradient
       id="linearGradient4526"
       osb:paint="solid">
      <stop
         id="stop4528"
         offset="0"
         style="stop-color:#ffffff" />
    </linearGradient>
    <linearGradient
       id="linearGradient3600-4"
       osb:paint="gradient">
      <stop
         id="stop3602-7"
         offset="0"
         style="stop-color:#f4f4f4" />
      <stop
         id="stop3604-6"
         offset="1"
         style="stop-color:#dbdbdb" />
    </linearGradient>
    <linearGradient
       id="linearGradient4226"
       x1="494.345"
       x2="4.414"
       y1="386.295"
       y2="169.657"
       gradientTransform="matrix(0,-0.453125,-0.45311204,0,253.29054,239.17477)"
       gradientUnits="userSpaceOnUse"
       xlink:href="#linearGradient4245" />
    <linearGradient
       id="linearGradient4245">
      <stop
         id="stop4241"
         offset="0"
         style="stop-color:#e8e8e8" />
      <stop
         id="stop4243"
         offset="1"
         style="stop-color:#f5f5f5" />
    </linearGradient>
    <linearGradient
       id="linearGradient4358"
       x1="88"
       x2="488"
       y1="88"
       y2="488"
       gradientUnits="userSpaceOnUse"
       xlink:href="#linearGradient4360" />
    <linearGradient
       id="linearGradient4360">
      <stop
         id="stop4362"
         offset="0"
         style="stop-color:#000000;stop-opacity:0.58823532" />
      <stop
         style="stop-color:#000000;stop-opacity:0"
         id="stop4364"
         offset=".88" />
      <stop
         id="stop4366"
         offset="1"
         style="stop-color:#000000" />
    </linearGradient>
    <filter
       style="color-interpolation-filters:sRGB"
       id="filter4380"
       width="1.106"
       height="1.088"
       x="-.05"
       y="-.04">
      <feGaussianBlur
         id="feGaussianBlur4382"
         stdDeviation="8.48" />
    </filter>
    <filter
       style="color-interpolation-filters:sRGB"
       id="filter4346"
       width="1.026"
       height="1.022"
       x="-.01"
       y="-.01">
      <feGaussianBlur
         id="feGaussianBlur4348"
         stdDeviation="2.12" />
    </filter>
    <filter
       inkscape:collect="always"
       style="color-interpolation-filters:sRGB"
       id="filter2020"
       x="-0.024"
       width="1.048"
       y="-0.024"
       height="1.048">
      <feGaussianBlur
         inkscape:collect="always"
         stdDeviation="0.84"
         id="feGaussianBlur2022" />
    </filter>
    <linearGradient
       gradientUnits="userSpaceOnUse"
       y2="119.09284"
       x2="-35.310345"
       y1="401.58368"
       x1="529.65515"
       id="linearGradient4226-3"
       xlink:href="#linearGradient4338"
       inkscape:collect="always"
       gradientTransform="matrix(0,-0.453125,0.45311204,0,17.237135,265.00077)" />
    <linearGradient
       inkscape:collect="always"
       id="linearGradient4338">
      <stop
         style="stop-color:#f2f2f2;stop-opacity:1"
         offset="0"
         id="stop4340" />
      <stop
         style="stop-color:#f9f9f9;stop-opacity:1"
         offset="1"
         id="stop4342" />
    </linearGradient>
    <filter
       inkscape:collect="always"
       style="color-interpolation-filters:sRGB"
       id="filter4380-3"
       x="-0.052999184"
       width="1.1059984"
       y="-0.043862626"
       height="1.0877253">
      <feGaussianBlur
         inkscape:collect="always"
         stdDeviation="8.4801079"
         id="feGaussianBlur4382-5" />
    </filter>
    <filter
       inkscape:collect="always"
       style="color-interpolation-filters:sRGB"
       id="filter4346-6"
       x="-0.013249796"
       width="1.0264996"
       y="-0.010965657"
       height="1.0219313">
      <feGaussianBlur
         inkscape:collect="always"
         stdDeviation="2.120027"
         id="feGaussianBlur4348-2" />
    </filter>
  </defs>
  <g
     style="enable-background:new"
     transform="translate(-15.865997,-27.826004)"
     id="g48">
    <path
       sodipodi:nodetypes="scccssscsss"
       inkscape:connector-curvature="0"
       id="path1163"
       d="m 94.121155,41.000769 c -35.296723,0 -39.09461,3.625418 -38.92162,38.99353 v 73.006471 73.00647 c -0.17299,35.36812 3.624897,38.99353 38.92162,38.99353 h 98.156765 c 35.29672,0 38.92162,-3.625 38.92162,-38.99353 V 153.00077 79.994299 c 0,-35.368533 -3.6249,-38.99353 -38.92162,-38.99353 z"
       style="color:#000000;display:inline;overflow:visible;visibility:visible;opacity:0.2;fill:none;fill-opacity:1;fill-rule:nonzero;stroke:#000000;stroke-width:4;stroke-miterlimit:4;stroke-dasharray:none;stroke-opacity:1;marker:none;enable-background:accumulate"
       inkscape:export-filename="/home/stuart/yaru/icons/Suru/256x256/legacy/document-new.png"
       inkscape:export-xdpi="96"
       inkscape:export-ydpi="96" />
    <path
       style="color:#000000;display:inline;overflow:visible;visibility:visible;opacity:0.1;fill:#000000;fill-opacity:1;fill-rule:nonzero;stroke:none;stroke-width:2;marker:none;filter:url(#filter4346-6);enable-background:accumulate"
       d="M 189.84323,74 C 119.24979,74 111.65402,81.250835 112,151.98706 V 298 444.01294 C 111.65402,514.74917 119.24979,522 189.84323,522 H 386.15677 C 456.75021,522 462.16345,514.72616 464,444.01294 V 298 151.98706 C 464,81.249993 456.75021,74 386.15677,74 Z"
       id="rect4158-9"
       inkscape:connector-curvature="0"
       sodipodi:nodetypes="scccssscsss"
       transform="matrix(0.5,0,0,0.5,-0.80046496,5.0007691)"
       inkscape:export-filename="/home/stuart/yaru/icons/Suru/256x256/legacy/document-new.png"
       inkscape:export-xdpi="96"
       inkscape:export-ydpi="96" />
    <path
       sodipodi:nodetypes="scccssscsss"
       inkscape:connector-curvature="0"
       id="path4350"
       d="M 189.84323,74 C 119.24979,74 111.65402,81.250835 112,151.98706 V 298 444.01294 C 111.65402,514.74917 119.24979,522 189.84323,522 H 386.15677 C 456.75021,522 464,514.75001 464,444.01294 V 298 151.98706 C 464,81.249993 456.75021,74 386.15677,74 Z"
       style="color:#000000;display:inline;overflow:visible;visibility:visible;opacity:0.3;fill:url(#linearGradient4358);fill-opacity:1;fill-rule:nonzero;stroke:none;stroke-width:2;marker:none;filter:url(#filter4380-3);enable-background:accumulate"
       transform="matrix(0.5,0,0,0.5,-0.80046496,5.0007691)"
       inkscape:export-filename="/home/stuart/yaru/icons/Suru/256x256/legacy/document-new.png"
       inkscape:export-xdpi="96"
       inkscape:export-ydpi="96" />
    <path
       style="color:#000000;display:inline;overflow:visible;visibility:visible;fill:url(#linearGradient4226-3);fill-opacity:1;fill-rule:nonzero;stroke:none;stroke-width:1;marker:none;enable-background:accumulate"
       d="m 94.121155,41.000769 c -35.296723,0 -39.09461,3.625418 -38.92162,38.99353 v 73.006471 73.00647 c -0.17299,35.36812 3.624897,38.99353 38.92162,38.99353 h 98.156765 c 35.29672,0 38.92162,-3.625 38.92162,-38.99353 V 153.00077 79.994299 c 0,-35.368533 -3.6249,-38.99353 -38.92162,-38.99353 z"
       id="rect4158"
       inkscape:connector-curvature="0"
       sodipodi:nodetypes="scccssscsss"
       inkscape:export-filename="/home/stuart/yaru/icons/Suru/256x256/legacy/document-new.png"
       inkscape:export-xdpi="96"
       inkscape:export-ydpi="96" />
    <circle
       style="display:inline;opacity:0.2;fill:#000000;fill-opacity:1;stroke:none;stroke-width:0.12500001;stroke-linecap:round;stroke-linejoin:round;stroke-miterlimit:4;stroke-dasharray:none;stroke-dashoffset:0;stroke-opacity:1;filter:url(#filter2020);enable-background:new"
       id="path4980-6-3-1-8-2-7-6-6"
       cx="208"
       cy="-182"
       transform="rotate(90,-2.9006173,-5.8998472)"
       r="42"
       inkscape:export-filename="/home/stuart/yaru/icons/Suru/256x256/legacy/document-new.png"
       inkscape:export-xdpi="96"
       inkscape:export-ydpi="96" />
    <circle
       style="display:inline;opacity:1;fill:#45a925;fill-opacity:1;stroke:none;stroke-width:0.12500001;stroke-linecap:round;stroke-linejoin:round;stroke-miterlimit:4;stroke-dasharray:none;stroke-dashoffset:0;stroke-opacity:1;enable-background:new"
       id="path4980-6-2-7-9-0-0-1"
       cx="203.00078"
       cy="-173.19952"
       transform="rotate(90)"
       r="42"
       inkscape:export-filename="/home/stuart/yaru/icons/Suru/256x256/legacy/document-new.png"
       inkscape:export-xdpi="96"
       inkscape:export-ydpi="96" />
    <rect
       style="display:inline;opacity:1;fill:#f4f4f4;fill-opacity:1;stroke:none;stroke-width:0.13333337;stroke-linecap:round;stroke-linejoin:round;stroke-miterlimit:4;stroke-dasharray:none;stroke-dashoffset:0;stroke-opacity:1;enable-background:new"
       id="rect9617-7-7-9-1-9-6-8"
       width="48"
       height="12"
       x="149.19952"
       y="197.00078"
       rx="2.2400002"
       ry="2"
       inkscape:export-filename="/home/stuart/yaru/icons/Suru/256x256/legacy/document-new.png"
       inkscape:export-xdpi="96"
       inkscape:export-ydpi="96" />
    <rect
       style="display:inline;opacity:1;fill:#f4f4f4;fill-opacity:1;stroke:none;stroke-width:0.13333337;stroke-linecap:round;stroke-linejoin:round;stroke-miterlimit:4;stroke-dasharray:none;stroke-dashoffset:0;stroke-opacity:1;enable-background:new"
       id="rect9619-5-0-2-2-3-2-7"
       width="12"
       height="48"
       x="167.19952"
       y="179.00078"
       rx="2"
       ry="2.2400002"
       inkscape:export-filename="/home/stuart/yaru/icons/Suru/256x256/legacy/document-new.png"
       inkscape:export-xdpi="96"
       inkscape:export-ydpi="96" />
    <path
       style="color:#000000;display:inline;overflow:visible;visibility:visible;opacity:0.1;fill:#ffffff;fill-opacity:1;fill-rule:nonzero;stroke:none;stroke-width:1;marker:none;enable-background:accumulate"
       d="M 173.19954,41.000769 V 265.00077 h 19.07812 c 35.29672,0 38.00361,-3.63655 38.92188,-38.99317 V 153.00077 79.993934 c 0,-35.368534 -3.62516,-38.993165 -38.92188,-38.993165 z"
       id="path4231"
       inkscape:connector-curvature="0"
       sodipodi:nodetypes="ccsscssc"
       inkscape:export-filename="/home/stuart/yaru/icons/Suru/256x256/legacy/document-new.png"
       inkscape:export-xdpi="96"
       inkscape:export-ydpi="96" />
    <path
       inkscape:connector-curvature="0"
       style="color:#000000;display:inline;overflow:visible;visibility:visible;opacity:0.1;fill:#ffffff;fill-opacity:1;fill-rule:nonzero;stroke:none;stroke-width:1;marker:none;enable-background:accumulate"
       d="m 55.199535,203.00077 v 23.00683 c -0.17299,35.36812 3.625155,38.99317 38.92188,38.99317 h 98.156245 c 35.29672,0 38.00361,-3.63655 38.92188,-38.99317 v -23.00683 z"
       id="path4255"
       sodipodi:nodetypes="ccssscc"
       inkscape:export-filename="/home/stuart/yaru/icons/Suru/256x256/legacy/document-new.png"
       inkscape:export-xdpi="96"
       inkscape:export-ydpi="96" />
    <path
       style="color:#000000;display:inline;overflow:visible;visibility:visible;opacity:0.4;fill:#ffffff;fill-opacity:1;fill-rule:nonzero;stroke:none;stroke-width:7.99999952;stroke-linecap:butt;stroke-linejoin:miter;stroke-miterlimit:4;stroke-dasharray:none;stroke-dashoffset:0;stroke-opacity:1;marker:none;enable-background:accumulate"
       d="m 171.19954,265.00077 60,-60 v 22.48388 c -0.0523,33.99581 -3.80268,37.51612 -38.1741,37.51612 z"
       id="path4254"
       inkscape:connector-curvature="0"
       sodipodi:nodetypes="cccsc"
       inkscape:export-filename="/home/stuart/yaru/icons/Suru/256x256/legacy/document-new.png"
       inkscape:export-xdpi="96"
       inkscape:export-ydpi="96" />
    <path
       style="color:#000000;display:inline;overflow:visible;visibility:visible;opacity:0.6;fill:#ffffff;fill-opacity:1;fill-rule:nonzero;stroke:none;stroke-width:1;marker:none;enable-background:accumulate"
       d="m 94.121415,41.000769 c -35.296728,0 -39.09487,3.626029 -38.92188,38.994141 v 2 c -0.17299,-35.368112 3.625152,-38.994141 38.92188,-38.994141 h 98.156245 c 35.29673,0 38.92188,3.625608 38.92188,38.994141 v -2 c 0,-35.368533 -3.62515,-38.994141 -38.92188,-38.994141 z"
       id="path931"
       inkscape:connector-curvature="0"
       inkscape:export-filename="/home/stuart/yaru/icons/Suru/256x256/legacy/document-new.png"
       inkscape:export-xdpi="96"
       inkscape:export-ydpi="96" />
  </g>
</svg>
